svg/device/plugin_2_line.svg

<?xml version="1.0" encoding="UTF-8"?>
<svg width="24px" height="24px" viewBox="0 0 24 24" version="1.1" xmlns="http://www.w3.org/2000/svg" xmlns:xlink="http://www.w3.org/1999/xlink">
    <title>plugin_2_line</title>
    <g id="页面-1" stroke="none" stroke-width="1" fill="none" fill-rule="evenodd">
        <g id="Device" transform="translate(-336.000000, -192.000000)">
            <g id="plugin_2_line" transform="translate(336.000000, 192.000000)">
                 <path d="M24,0 L24,24 L0,24 L0,0 L24,0 Z M12.5934901,23.257841 L12.5819402,23.2595131 L12.5108777,23.2950439 L12.4918791,23.2987469 L12.4918791,23.2987469 L12.4767152,23.2950439 L12.4056548,23.2595131 C12.3958229,23.2563662 12.3870493,23.2590235 12.3821421,23.2649074 L12.3780323,23.275831 L12.360941,23.7031097 L12.3658947,23.7234994 L12.3769048,23.7357139 L12.4804777,23.8096931 L12.4953491,23.8136134 L12.4953491,23.8136134 L12.5071152,23.8096931 L12.6106902,23.7357139 L12.6232938,23.7196733 L12.6232938,23.7196733 L12.6266527,23.7031097 L12.609561,23.275831 C12.6075724,23.2657013 12.6010112,23.2592993 12.5934901,23.257841 L12.5934901,23.257841 Z M12.8583906,23.1452862 L12.8445485,23.1473072 L12.6598443,23.2396597 L12.6498822,23.2499052 L12.6498822,23.2499052 L12.6471943,23.2611114 L12.6650943,23.6906389 L12.6699349,23.7034178 L12.6699349,23.7034178 L12.678386,23.7104931 L12.8793402,23.8032389 C12.8914285,23.8068999 12.9022333,23.8029875 12.9078286,23.7952264 L12.9118235,23.7811639 L12.8776777,23.1665331 C12.8752882,23.1545897 12.8674102,23.1470016 12.8583906,23.1452862 L12.8583906,23.1452862 Z M12.1430473,23.1473072 C12.1332178,23.1423925 12.1221763,23.1452606 12.1156365,23.1525954 L12.1099173,23.1665331 L12.0757714,23.7811639 C12.0751323,23.7926639 12.0828099,23.8018602 12.0926481,23.8045676 L12.108256,23.8032389 L12.3092106,23.7104931 L12.3186497,23.7024347 L12.3186497,23.7024347 L12.3225043,23.6906389 L12.340401,23.2611114 L12.337245,23.2485176 L12.337245,23.2485176 L12.3277531,23.2396597 L12.1430473,23.1473072 Z" id="MingCute" fill-rule="nonzero"></path>
                <path d="M10.5,4 C9.40564,4 8.69387,5.15167 9.18328,6.13049 L9.34565,6.45523 C9.70051,7.16495 9.18442,8 8.39092,8 L5,8 C4.44772,8 4,8.44772 4,9 L4,10.1944 C5.82084,10.0853 7.5,11.5252 7.5,13.5 C7.5,15.4748 5.82084,16.9147 4,16.8056 L4,19 C4,19.5523 4.44772,20 5,20 L7.19435,20 C7.08534,18.1792 8.52516,16.5 10.5,16.5 C12.4748,16.5 13.9147,18.1792 13.8056,20 L15,20 C15.5523,20 16,19.5523 16,19 L16,15.6091 C16,14.8156 16.835,14.2995 17.5448,14.6544 L17.8695,14.8167 C18.8483,15.3061 20,14.5944 20,13.5 C20,12.4056 18.8483,11.6939 17.8695,12.1833 L17.5448,12.3456 C16.835,12.7005 16,12.1844 16,11.3909 L16,9 C16,8.44772 15.5523,8 15,8 L12.6091,8 C11.8156,8 11.2995,7.16495 11.6544,6.45523 L11.8167,6.13049 C12.3061,5.15167 11.5944,4 10.5,4 Z M7.06441,6 C6.74822,3.98274 8.29477,2 10.5,2 C12.7052,2 14.2518,3.98274 13.9356,6 L15,6 C16.6569,6 18,7.34315 18,9 L18,10.0644 C20.0173,9.74822 22,11.2948 22,13.5 C22,15.7052 20.0173,17.2518 18,16.9356 L18,19 C18,20.6569 16.6569,22 15,22 L12.5929,22 C11.831,22 11.3173,21.221 11.6174,20.5207 L11.7021,20.3231 C12.072,19.4601 11.439,18.5 10.5,18.5 C9.56105,18.5 8.92799,19.4601 9.29786,20.3231 L9.38256,20.5207 C9.68268,21.221 9.169,22 8.40712,22 L5,22 C3.34315,22 2,20.6569 2,19 L2,15.5929 C2,14.831 2.779,14.3173 3.47929,14.6174 L3.67691,14.7021 C4.53994,15.072 5.5,14.439 5.5,13.5 C5.5,12.561 4.53994,11.928 3.67691,12.2979 L3.47929,12.3826 C2.779,12.6827 2,12.169 2,11.4071 L2,9 C2,7.34315 3.34315,6 5,6 L7.06441,6 Z" id="形状" fill="#09244B"></path>
            </g>
        </g>
    </g>
</svg>

<svg xmlns="http://www.w3.org/2000/svg" width="24" height="24"><g fill="none" fill-rule="evenodd"><path d="M24 0v24H0V0h24ZM12.593 23.258l-.011.002-.071.035-.02.004-.014-.004-.071-.035c-.01-.004-.019-.001-.024.005l-.004.01-.017.428.005.02.01.013.104.074.015.004.012-.004.104-.074.012-.016.004-.017-.017-.427c-.002-.01-.009-.017-.017-.018Zm.265-.113-.013.002-.185.093-.01.01-.003.011.018.43.005.012.008.007.201.093c.012.004.023 0 .029-.008l.004-.014-.034-.614c-.003-.012-.01-.02-.02-.022Zm-.715.002a.023.023 0 0 0-.027.006l-.006.014-.034.614c0 .012.007.02.017.024l.015-.002.201-.093.01-.008.004-.011.017-.43-.003-.012-.01-.01-.184-.092Z"/><path fill="#09244B" d="M10.5 4a1.472 1.472 0 0 0-1.317 2.13l.163.325A1.067 1.067 0 0 1 8.39 8H5a1 1 0 0 0-1 1v1.194c1.82-.109 3.5 1.331 3.5 3.306S5.82 16.915 4 16.806V19a1 1 0 0 0 1 1h2.194c-.109-1.82 1.331-3.5 3.306-3.5s3.415 1.68 3.306 3.5H15a1 1 0 0 0 1-1v-3.39c0-.794.835-1.31 1.545-.956l.324.163a1.472 1.472 0 1 0 0-2.634l-.324.163A1.067 1.067 0 0 1 16 11.39V9a1 1 0 0 0-1-1h-2.39c-.794 0-1.31-.835-.956-1.545l.163-.325A1.472 1.472 0 0 0 10.5 4ZM7.064 6c-.316-2.017 1.23-4 3.436-4 2.205 0 3.752 1.983 3.436 4H15a3 3 0 0 1 3 3v1.064c2.017-.316 4 1.23 4 3.436 0 2.205-1.983 3.752-4 3.436V19a3 3 0 0 1-3 3h-2.407a1.061 1.061 0 0 1-.976-1.48l.085-.197a1.308 1.308 0 1 0-2.404 0l.085.198c.3.7-.214 1.479-.976 1.479H5a3 3 0 0 1-3-3v-3.407c0-.762.779-1.276 1.48-.976l.197.085a1.308 1.308 0 1 0 0-2.404l-.198.085c-.7.3-1.479-.214-1.479-.976V9a3 3 0 0 1 3-3h2.064Z"/></g></svg>
